app/img/icons/benefits-icon-3.svg

<svg width="32" height="32" viewBox="0 0 32 32" fill="none" xmlns="http://www.w3.org/2000/svg">
<path d="M16.097 3.55298C9.25252 3.55298 3.68402 9.12148 3.68402 15.966C3.68402 22.811 9.25252 28.38 16.097 28.38C22.9415 28.38 28.51 22.811 28.51 15.966C28.5105 9.12148 22.942 3.55298 16.097 3.55298ZM22.9555 15.0585V15.059L19.362 17.659L20.746 21.889C20.768 21.955 20.7795 22.0255 20.7795 22.0975C20.7795 22.467 20.4805 22.767 20.111 22.767C19.964 22.767 19.829 22.72 19.719 22.6405L16.0975 20.021L12.476 22.6405C12.366 22.72 12.231 22.767 12.0845 22.767C11.7145 22.767 11.415 22.4675 11.415 22.0975C11.415 22.025 11.427 21.955 11.449 21.889L12.8335 17.659L9.24002 15.059V15.0585C9.07202 14.9375 8.96302 14.74 8.96302 14.517C8.96302 14.1475 9.26202 13.8485 9.63202 13.8485H14.0805L15.458 9.63798C15.542 9.36448 15.7965 9.16548 16.098 9.16548C16.399 9.16548 16.654 9.36448 16.7375 9.63798L18.115 13.8485H22.5635C22.933 13.8485 23.2325 14.1475 23.2325 14.517C23.232 14.74 23.123 14.9375 22.9555 15.0585Z" fill="#F0145A"/>
</svg>

<svg xmlns="http://www.w3.org/2000/svg" width="32" height="32" fill="none" xmlns:v="https://vecta.io/nano"><path d="M16.097 3.553A12.43 12.43 0 0 0 3.684 15.966 12.43 12.43 0 0 0 16.097 28.38 12.43 12.43 0 0 0 28.51 15.966 12.43 12.43 0 0 0 16.097 3.553zm6.858 11.506h0l-3.594 2.6 1.384 4.23a.66.66 0 0 1 .034.209.67.67 0 0 1-.668.669c-.147 0-.282-.047-.392-.127l-3.622-2.619-3.621 2.619c-.11.079-.245.127-.392.127a.67.67 0 0 1-.67-.669.66.66 0 0 1 .034-.209l1.385-4.23-3.593-2.6h0c-.168-.121-.277-.319-.277-.542a.67.67 0 0 1 .669-.668h4.448l1.377-4.211a.67.67 0 0 1 1.28 0l1.377 4.211h4.449a.67.67 0 0 1 .392 1.21z" fill="#f0145a"/></svg>
